Sources/FrostedUI/Resources/Icons.xcassets/facebook24.imageset/facebook-24.svg

<svg width="24" height="24" viewBox="0 0 24 24" fill="none" xmlns="http://www.w3.org/2000/svg" data-fui-icon="true">
  <path
    d="M12 1.25C17.937 1.25 22.75 6.06301 22.75 12C22.75 17.496 18.6258 22.0269 13.3027 22.6719L12.4619 22.7744V14.3057H15.291L15.5762 12.75H12.458V10.9189C12.4581 10.0416 12.6243 9.22931 13.2031 8.66016C13.7788 8.09424 14.5963 7.93359 15.4805 7.93359C15.6216 7.9336 15.7577 7.93656 15.8867 7.93848V6.57324C15.4339 6.50831 14.8539 6.45312 14.4639 6.45312C12.8987 6.45315 11.9131 6.82321 11.3076 7.44141C10.6989 8.06303 10.334 9.07867 10.334 10.6836V12.75H8.27051V14.3057H10.334V22.665L9.40332 22.4336C4.72093 21.2718 1.25 17.0426 1.25 12C1.25 6.06301 6.06301 1.25 12 1.25ZM12 2.75C6.89143 2.75 2.75 6.89143 2.75 12C2.75 15.9956 5.28451 19.3983 8.83398 20.6914V15.8057H6.77051V11.25H8.83398V10.6836C8.83398 8.88488 9.23935 7.40996 10.2354 6.39258C11.2348 5.37193 12.6894 4.95315 14.4639 4.95312C15.1404 4.95312 16.3033 5.08135 16.8359 5.22852L17.3867 5.37988V9.54883L16.5605 9.46582C16.3651 9.44608 15.986 9.4336 15.4805 9.43359C14.7247 9.43359 14.4053 9.58253 14.2549 9.73047C14.1078 9.87528 13.9581 10.181 13.958 10.9189V11.25H17.376L17.2139 12.1348L16.6543 15.1904L16.541 15.8057H13.9619V21.042C18.1282 20.1414 21.25 16.4346 21.25 12C21.25 6.89143 17.1086 2.75 12 2.75Z"
    fill="currentColor"
  />
</svg>

<svg xmlns="http://www.w3.org/2000/svg" width="24" height="24" fill="none" data-fui-icon="true" viewBox="0 0 24 24"><path fill="currentColor" d="M12 1.25c5.937 0 10.75 4.813 10.75 10.75 0 5.496-4.124 10.027-9.447 10.672l-.841.102v-8.468h2.829l.285-1.556h-3.118v-1.831c0-.877.166-1.69.745-2.259.576-.566 1.393-.726 2.278-.726q.211.001.406.004V6.573a11 11 0 0 0-1.423-.12c-1.565 0-2.55.37-3.156.988-.61.622-.974 1.638-.974 3.243v2.066H8.271v1.556h2.063v8.359l-.93-.231C4.72 21.272 1.25 17.043 1.25 12 1.25 6.063 6.063 1.25 12 1.25m0 1.5a9.25 9.25 0 0 0-3.166 17.941v-4.885H6.771V11.25h2.063v-.566c0-1.8.405-3.274 1.401-4.291 1-1.021 2.454-1.44 4.229-1.44.676 0 1.84.128 2.372.276l.55.15v4.17l-.825-.083c-.196-.02-.575-.032-1.08-.032-.756 0-1.076.149-1.226.296-.147.145-.297.451-.297 1.189v.331h3.418l-.162.885-.56 3.055-.113.616h-2.58v5.236A9.25 9.25 0 0 0 12 2.75"/></svg>
